dist/uploads/catalog-sidebar-icons/1/i-catalog-15.svg

<svg width="38" height="19" viewBox="0 0 38 19" fill="none" xmlns="http://www.w3.org/2000/svg">
<path fill-rule="evenodd" clip-rule="evenodd" d="M0.678572 0H2.03572C2.41048 0 2.71429 0.303807 2.71429 0.678572V18.3214C2.71429 18.6962 2.41048 19 2.03572 19H0.678572C0.303807 19 0 18.6962 0 18.3214V0.678572C0 0.303807 0.303807 0 0.678572 0ZM4.27002 6.98454C4.39727 6.85728 4.56987 6.78579 4.74984 6.78579H6.78556V12.2144H4.07127L4.07127 7.46436C4.07127 7.28439 4.14276 7.1118 4.27002 6.98454ZM4.07127 13.5716H33.9284V16.2859H4.07127V13.5716ZM8.2316 8.38171L30.7859 0.0973339C31.2236 -0.0634334 31.7173 -0.0162909 32.1584 0.22839C32.5995 0.473072 32.9519 0.895249 33.1381 1.40205L33.84 3.31294L9.63537 12.2035L8.2316 8.38171ZM37.3215 5.42873H35.9644C35.5896 5.42873 35.2858 5.73254 35.2858 6.1073V18.3216C35.2858 18.6964 35.5896 19.0002 35.9644 19.0002H37.3215C37.6963 19.0002 38.0001 18.6964 38.0001 18.3216V6.1073C38.0001 5.73254 37.6963 5.42873 37.3215 5.42873ZM20.3457 8.52199L20.8264 8.35502C20.9592 8.30891 21.1041 8.37893 21.1501 8.51141L22.6497 12.8292C22.6957 12.9617 22.6254 13.1065 22.4927 13.1526L22.0119 13.3195C21.8791 13.3656 21.7342 13.2956 21.6882 13.1631L20.1886 8.84536C20.1426 8.71287 20.2129 8.5681 20.3457 8.52199Z" fill="#FFC800"/>
</svg>

<svg width="38" height="19" fill="none" xmlns="http://www.w3.org/2000/svg"><path fill-rule="evenodd" clip-rule="evenodd" d="M.679 0h1.357c.374 0 .678.304.678.679V18.32a.679.679 0 0 1-.678.679H.679A.679.679 0 0 1 0 18.321V.68A.68.68 0 0 1 .679 0zM4.27 6.985a.679.679 0 0 1 .48-.2h2.036v5.43H4.07v-4.75a.68.68 0 0 1 .199-.48zm-.199 6.587h29.857v2.714H4.071v-2.714zm4.16-5.19L30.787.097c.438-.16.931-.113 1.372.131.441.245.794.667.98 1.174l.702 1.91-24.205 8.892-1.403-3.822zm29.09-2.953h-1.357a.679.679 0 0 0-.678.678v12.215c0 .374.304.678.678.678h1.358a.679.679 0 0 0 .678-.678V6.107a.679.679 0 0 0-.678-.678zM20.346 8.522l.48-.167a.254.254 0 0 1 .324.156l1.5 4.318a.254.254 0 0 1-.157.324l-.481.166a.254.254 0 0 1-.324-.156l-1.5-4.318a.254.254 0 0 1 .158-.323z" fill="#FFC800"/></svg>
